src/icons/send-email.svg

<svg width="24" height="24" viewBox="0 0 24 24" fill="none" xmlns="http://www.w3.org/2000/svg">
<path fill-rule="evenodd" clip-rule="evenodd" d="M18 7.25V10.1716L19 9.17163L20 10.1716V4H0V20H10V18H2V7.25L10 13.25L18 7.25ZM3.66667 6L10 10.75L16.3333 6H3.66667Z" fill="black"/>
<path d="M12 18.0001V16H19.9999L17.5 13.5L19 12L24 17L19 22L17.5 20.5L19.9999 18.0001H12Z" fill="black"/>
</svg>

<svg xmlns="http://www.w3.org/2000/svg" width="24" height="24" fill="none"><path fill="currentColor" fill-rule="evenodd" d="M18 7.25v2.922l1-1 1 1V4H0v16h10v-2H2V7.25l8 6zM3.667 6 10 10.75 16.333 6z" clip-rule="evenodd"/><path fill="currentColor" d="M12 18v-2h8l-2.5-2.5L19 12l5 5-5 5-1.5-1.5L20 18z"/></svg>
